packages/foundations/assets/icons/functional/images/notification/bell_disabled_24.svg

<svg width="24" height="24" viewBox="0 0 24 24" fill="none" xmlns="http://www.w3.org/2000/svg">
<g clip-path="url(#clip0_187_137)">
<path fill-rule="evenodd" clip-rule="evenodd" d="M18.4548 10.2801C18.47 10.4743 18.4802 10.6722 18.4853 10.8736L18.5126 13.9953C18.5126 15.8263 19.0293 16.507 20.039 17.1643C20.4147 17.3991 20.5791 17.8685 20.4617 18.2911C20.3208 18.7136 19.9451 18.9953 19.4989 18.9953H15.7651C15.6242 20.662 14.2153 22 12.5245 22C10.952 22 9.63647 20.8742 9.33892 19.4015L11.7382 17L17.1506 17C16.681 16.061 16.4461 15.0282 16.4931 13.9953L16.4922 12.243L18.4548 10.2801ZM12.501 2C13.0411 2 13.4873 2.44603 13.4873 3.00933V4.08923L13.5109 4.08903C14.9484 4.31946 16.1295 5.02148 16.98 6.10646L18.7939 4.29289C19.1844 3.90237 19.8176 3.90237 20.2081 4.29289C20.5686 4.65338 20.5963 5.22061 20.2913 5.6129L20.2081 5.70711L5.20613 20.7091C4.81561 21.0996 4.18244 21.0996 3.79192 20.7091C3.43143 20.3486 3.4037 19.7814 3.70873 19.3891L3.79192 19.2949L6.50102 16.596V11.1784C6.50102 7.21127 8.43853 4.53516 11.4912 4.06574V3.00933C11.4912 2.44603 11.9374 2 12.501 2ZM13.7456 18.9953H11.3034C11.4208 19.5587 11.9139 19.9812 12.5245 19.9812C13.1116 19.9812 13.6047 19.5587 13.7456 18.9953ZM12.4775 5.99062C9.98832 5.99062 8.48542 7.939 8.48542 11.1784V13.9953C8.49466 14.1982 8.49392 14.4011 8.48321 14.6033L15.5498 7.53679C14.8588 6.5387 13.8102 5.99062 12.4775 5.99062Z" fill="#1A1C1F"/>
</g>
<defs>
<clipPath id="clip0_187_137">
<rect width="24" height="24" fill="white"/>
</clipPath>
</defs>
</svg>

<svg xmlns="http://www.w3.org/2000/svg" width="24" height="24" fill="none"><g clip-path="url(#a)"><path fill="#1A1C1F" fill-rule="evenodd" d="M18.455 10.28q.023.291.03.594l.028 3.121c0 1.831.516 2.512 1.526 3.17.376.234.54.704.423 1.126-.141.423-.517.704-.963.704h-3.734c-.14 1.667-1.55 3.005-3.24 3.005a3.26 3.26 0 0 1-3.186-2.599l2.4-2.401h5.412a6.1 6.1 0 0 1-.658-3.005v-1.752zM12.5 2c.54 0 .986.446.986 1.01v1.08l.024-.001c1.437.23 2.619.932 3.469 2.017l1.814-1.813a1 1 0 0 1 1.497 1.32l-.083.094L5.206 20.71a1 1 0 0 1-1.497-1.32l.083-.094L6.5 16.596v-5.418c0-3.967 1.938-6.643 4.99-7.112V3.009c0-.563.446-1.009 1.01-1.009m1.245 16.995h-2.443c.118.564.61.986 1.221.986.588 0 1.08-.422 1.222-.986M12.477 5.991c-2.489 0-3.992 1.948-3.992 5.187v2.817q.015.305-.002.608l7.067-7.066c-.691-.998-1.74-1.546-3.073-1.546" clip-rule="evenodd"/></g><defs><clipPath id="a"><path fill="#fff" d="M0 0h24v24H0z"/></clipPath></defs></svg>
